assets/icons/uE028-switch.svg

<svg xmlns="http://www.w3.org/2000/svg" width="896" height="1232" viewBox="0 0 896 1232"><path d="M840 56q23 0 39.5 16.5T896 112v784q0 23-16.5 39.5T840 952H56q-23 0-39.5-16.5T0 896V112q0-23 16.5-39.5T56 56h784zm0 840V112H56v784h784zM308 252h280v504H308V252zm252 252V280H336v224h224z"/></svg>

<?xml version="1.0" encoding="UTF-8" standalone="no"?><svg   xmlns:svg="http://www.w3.org/2000/svg"   xmlns="http://www.w3.org/2000/svg"   version="1.1"   width="896"   height="1232"   viewBox="0 0 896 1232">  <path     d="M840 56Q863 56 879.5 72.5T896 112V896Q896 919 879.5 935.5T840 952H56Q33 952 16.5 935.5T0 896V112Q0 89 16.5 72.5T56 56H840zM840 896V112H56V896H840zM308 252H588V756H308V252zM560 504V280H336V504H560z"     id="icon245" /></svg>
